X: 68
T: Polska fr\aan Svanskog
O: V\"armland, Sweden
R: polska, hambo
S: http://www.folksweden.com/files/Polska_fr_n_Svanskog.pdf (Tim Rued)
Z: 2021 John Chambers <jc:trillian.mit.edu>
M: 3/4
L: 1/8
K: G
z |\
g>d B<G A>B | c>B (3cec A>g | f>e f<g a>f | g>f (3gbg (3def || g>d B<G A>B |
c>B (3cec A>g | f>e f<g (3afa | g2 G3 :: (E | G)>c e2 e>B | c>e d>c B>G |
A>B (3cAc (3BGB | (3AFA D3 (E || G)>c e2 e>B | c>e d>c B>G | A>B (3cAc (3BGB | (3AFA G3 :|
